X:994
T:Granny McKinnon
C:Joe Buchanan's Scottish Tome - Page 579.0
I:579 0
Z:Carl Allison
C:Iain Peterson
R:Waltz
L:1/4
M:4/4
K:A
E | "A"c c/=c/ ^c/d/ | "A7"c A G | "D"F d> F | "A"E2E |
E A A | "F#m"A G A | "Bm"B3- | "E7"B2 E |
"A"c c/=c/ ^c/d/ | "A7"c A G | "D"F d> F | "A"E2E |
"D"F B> A | "Bm"G c> B | "A  C  C#"A3- | "A"A2 "A7"A |]
"D"F D F | "Dm"B A F | "A"E A B |c3 |
"Bm"B2 c | B2 A | "E7"G A> F | "A7"E3 |
"D"F D> F | "Bm"B A> F | "A"E A B | c3 |
"B7"^d2 c/B/ | g2 f | "E7"e3- | e2 E |
"A"c c/=c/ ^c/d/ | "A7"c A G | "D"F d> F | "A"E2 E |
E A A | "F#m"A G A | "Bm"B3- | "E7"B2 E |
"A"c c/=c/ ^c/d/ | "A7"c A G | "D"F d> F | "A"E2 E |
"D"F B> A | "E7"G c> B | "A   E   C#"A3- | "A"A2 z |]

